originals/booty.svg

<?xml version="1.0" encoding="UTF-8"?>
<svg width="200px" height="203px" viewBox="0 0 200 203" version="1.1" xmlns="http://www.w3.org/2000/svg" xmlns:xlink="http://www.w3.org/1999/xlink">
    <!-- Generator: Sketch 52.3 (67297) - http://www.bohemiancoding.com/sketch -->
    <title>booty</title>
    <desc>Created with Sketch.</desc>
    <g id="Page-1" stroke="none" stroke-width="1" fill="none" fill-rule="evenodd">
        <path d="M31.4411719,158.165522 L31.4411719,159.469389 L18.0198273,159.469389 L18.0198273,134.857803 L17.6035532,136.219251 L4.76865749,132.295584 L12.0193693,108.581715 L11.1267989,109.904885 L0,102.400442 L13.9033665,81.7897141 L12.5773993,82.8633642 L4.13107353,72.4339619 L24.1390315,56.2332993 L21.5823213,57.2146398 L16.7725416,44.6858661 L40.6701821,35.5132494 L37.8772511,35.7085326 L36.9410254,22.3210901 L61.9613286,20.571658 L59.7024526,20.0502024 L62.7215981,6.97402634 L86.6221066,12.4913955 L85.1164389,11.6221762 L91.8271112,0 L112.672766,12.0341583 L111.86151,11.1642712 L121.67726,2.01176235 L137.910347,19.4180455 L137.56432,18.7086492 L149.627345,12.8256499 L160.041123,34.1751306 L159.94649,33.5777044 L173.202596,31.4783331 L177.108253,56.1354577 L177.386277,54.380246 L190.642382,56.4796173 L186.678259,81.5058435 L187.658393,79.4964533 L199.721418,85.3794524 L188.552417,108.277231 L190.18425,106.527463 L200,115.679971 L182.647419,134.286656 L184.748132,133.073918 L191.458805,144.696094 L169.645969,157.288604 L171.840679,156.781961 L174.859825,169.858138 L150.757491,175.422098 L152.614625,175.55195 L151.678399,188.939392 L127.55232,187.252485 L128.781853,187.724415 L123.972074,200.253189 L100.877747,191.388908 L102.337145,192.570598 L93.8908192,203 L74.8290729,187.565496 L75.7700989,188.960498 L64.6432998,196.464941 L51.0172971,176.265385 L51.422403,177.590307 L38.5807829,181.51603 L31.4411719,158.165522 Z M31.4411719,142.219144 L39.8238389,139.656537 L46.3385955,160.963423 L53.586575,156.07504 L65.9744637,174.439183 L71.5072904,167.607327 L88.6752066,181.508377 L91.746148,173.509023 L112.43468,181.449891 L113.040649,172.784918 L135.178874,174.332833 L133.186825,165.705101 L154.889051,160.6952 L150.392376,152.907434 L169.763616,141.724452 L163.128958,135.538092 L178.431109,119.130026 L170.267943,115.148943 L180.109307,94.972977 L171.180426,93.5589089 L174.689687,71.4043066 L166.152341,72.7563673 L162.644532,50.6109309 L154.954771,54.3611394 L145.184427,34.3307727 L138.916801,40.1749003 L123.79815,23.9635946 L119.472195,31.4556912 L100.334111,20.4073101 L98.3563077,28.9733426 L76.8261398,24.0031603 L77.4512259,32.9415004 L55.3501174,34.486821 L58.6180267,42.9992477 L37.8083292,50.9866212 L43.407254,57.9000935 L25.9366241,72.0462537 L33.3103228,77.0194273 L20.7150736,95.6909666 L29.2021171,98.285482 L22.6231538,119.802359 L31.4411719,119.802359 L31.4411719,142.219144 Z M61.1040563,60.1430857 L88.169893,60.1430857 C91.3139201,60.1430857 94.4408131,60.3651947 97.5506659,60.8094193 C100.660519,61.2536439 103.394414,62.1420797 105.752435,63.4747535 C108.110455,64.8074273 109.904574,66.6697255 111.134845,69.0617041 C112.365117,71.4536827 112.706854,74.6315494 112.160066,78.5953997 C111.613279,82.6959344 109.990029,86.0959101 107.290266,88.7954288 C104.590504,91.4949475 101.292742,93.4255869 97.3968828,94.5874051 L97.3968828,94.7924308 C99.7207289,95.134142 101.788237,95.8004689 103.59947,96.7914315 C105.410703,97.782394 106.897259,99.0467066 108.059182,100.584407 C109.221105,102.122108 110.041274,103.916065 110.519713,105.966332 C110.998152,108.016599 111.066499,110.203518 110.724757,112.527155 C110.17797,116.35432 108.913543,119.549273 106.931439,122.112107 C104.949335,124.674941 102.557176,126.742263 99.7548913,128.314134 C96.9526063,129.886006 93.8769738,131.013636 90.5279015,131.697059 C87.1788292,132.380481 83.8981545,132.722187 80.6857791,132.722187 L50.9543676,132.722187 L61.1040563,60.1430857 Z M72.9966209,89.1542238 L84.5816192,89.1542238 C85.8118907,89.1542238 87.0421437,89.0175413 88.2724151,88.7441723 C89.5026866,88.4708034 90.6475053,88.0265854 91.7069058,87.4115052 C92.7663062,86.796425 93.6548222,85.9763304 94.3724806,84.9511967 C95.0901389,83.926063 95.5514838,82.6959211 95.756529,81.2607339 C95.9615743,79.7572045 95.8077927,78.5099772 95.2951796,77.5190147 C94.7825665,76.5280521 94.047832,75.7592134 93.0909542,75.2124754 C92.1340764,74.6657375 91.0234314,74.2727755 89.7589857,74.0335776 C88.49454,73.7943798 87.2472002,73.6747826 86.0169287,73.6747826 L75.1495852,73.6747826 L72.9966209,89.1542238 Z M68.7932145,119.19049 L83.1463097,119.19049 C84.3765811,119.19049 85.6580947,119.053808 86.9908888,118.780439 C88.3236828,118.50707 89.536849,118.028681 90.6304236,117.345259 C91.7239982,116.661837 92.6808617,115.773401 93.5010427,114.679925 C94.3212236,113.586449 94.833829,112.253795 95.0388743,110.681923 C95.2439195,108.973367 95.0047037,107.589458 94.3212195,106.530153 C93.6377354,105.470848 92.6808719,104.667839 91.4506005,104.121101 C90.220329,103.574363 88.8704681,103.198486 87.4009772,102.993459 C85.9314863,102.788432 84.5474517,102.685921 83.2488318,102.685921 L71.151223,102.685921 L68.7932145,119.19049 Z M145.954258,61.2954046 L128.986291,123.292514 L114.970101,122.310238 L125.53353,58.3867818 L145.954258,61.2954046 Z M131.159994,129.760007 L126.749933,151.665294 L108.107783,146.237327 L112.376937,125.221689 L131.159994,129.760007 Z" id="booty" fill="#00B4F4" fill-rule="nonzero"></path>
    </g>
</svg>

<svg xmlns="http://www.w3.org/2000/svg" width="200" height="203" viewBox="0 0 200 203"><path fill="#00B4F4" d="M31.441 158.166v1.303H18.02v-24.611l-.416 1.361-12.835-3.923 7.25-23.714-.892 1.323L0 102.4l13.903-20.61-1.326 1.073-8.446-10.429 20.008-16.2-2.557.98-4.81-12.528 23.898-9.173-2.793.196-.936-13.388 25.02-1.75-2.259-.52 3.02-13.077 23.9 5.517-1.506-.869L91.827 0l20.846 12.034-.811-.87 9.815-9.152 16.233 17.406-.346-.71 12.063-5.882 10.414 21.35-.095-.598 13.257-2.1 3.905 24.657.278-1.755 13.256 2.1-3.964 25.026.98-2.01 12.063 5.883-11.169 22.898 1.632-1.75L200 115.68l-17.353 18.607 2.101-1.213 6.71 11.622-21.812 12.593 2.195-.507 3.019 13.076-24.103 5.564 1.858.13-.937 13.387-24.126-1.687 1.23.472-4.81 12.53-23.094-8.865 1.46 1.182L93.89 203l-19.062-15.435.941 1.395-11.127 7.505-13.626-20.2.405 1.325-12.841 3.926zm0-15.947 8.383-2.562 6.515 21.306 7.248-4.888 12.387 18.364 5.533-6.832 17.168 13.901 3.071-7.999 20.689 7.94.606-8.664 22.138 1.548-1.992-8.628 21.702-5.01-4.497-7.788 19.372-11.183-6.635-6.186 15.302-16.408-8.163-3.981 9.841-20.176-8.929-1.414 3.51-22.155-8.538 1.352-3.507-22.145-7.69 3.75-9.77-20.03-6.268 5.844-15.119-16.211-4.326 7.492-19.138-11.049-1.978 8.566-21.53-4.97.625 8.939-22.1 1.545 3.267 8.512-20.81 7.988 5.6 6.913-17.471 14.146 7.373 4.973-12.595 18.672 8.487 2.594-6.579 21.517h8.818zm29.663-82.076H88.17q4.716 0 9.38.666 4.665.667 8.202 2.666t5.383 5.587 1.025 9.533q-.82 6.15-4.87 10.2t-9.893 5.792v.205q3.486.512 6.202 2 2.718 1.486 4.46 3.792 1.743 2.307 2.46 5.382.719 3.076.206 6.561-.82 5.74-3.794 9.585a23.6 23.6 0 0 1-7.176 6.202q-4.203 2.358-9.227 3.383t-9.842 1.025H50.954zm11.893 29.011h11.585q1.845 0 3.69-.41a12 12 0 0 0 3.435-1.332 8.3 8.3 0 0 0 2.665-2.46q1.077-1.539 1.385-3.691.307-2.256-.462-3.742a5.5 5.5 0 0 0-2.204-2.307q-1.436-.82-3.332-1.178a20 20 0 0 0-3.742-.36H75.15zm-4.204 30.036h14.353q1.845 0 3.845-.41a11 11 0 0 0 3.64-1.435 10.6 10.6 0 0 0 2.87-2.665q1.23-1.64 1.538-3.998.308-2.564-.718-4.152-1.025-1.59-2.87-2.409-1.845-.82-4.05-1.128a30 30 0 0 0-4.152-.307H71.15zm77.161-57.895-16.968 61.998-14.016-.983 10.564-63.923zM131.16 129.76l-4.41 21.905-18.642-5.428 4.269-21.015z"/></svg>
